X:1
T:Bonny Baby Livingston
M:3/4
L:1/8
K:C
 G2 E2 GA| c2 E2 DC| c2A-G Ac| d4c-d| e2 c2 dA| c2 A2 G e/2d/2| c2 A2 GE|\
 D6|
